public/rel.svg

<svg fill="none" height="60" viewBox="0 0 62 60" width="62" xmlns="http://www.w3.org/2000/svg" xmlns:xlink="http://www.w3.org/1999/xlink"><linearGradient id="a"><stop offset=".00800497" stop-color="#38dbff"/><stop offset="1" stop-color="#243aff"/></linearGradient><linearGradient id="b" gradientUnits="userSpaceOnUse" x1="-3.94117" x2="49.3234" xlink:href="#a" y1="5.92822" y2="49.7893"/><linearGradient id="c" gradientUnits="userSpaceOnUse" x1="6.78481" x2="14.3225" xlink:href="#a" y1="33.8909" y2="34.5218"/><linearGradient id="d" gradientUnits="userSpaceOnUse" x1="48.6548" x2="56.1925" xlink:href="#a" y1="33.8909" y2="34.5218"/><linearGradient id="e" gradientUnits="userSpaceOnUse" x1="27.7148" x2="35.2525" xlink:href="#a" y1="33.8909" y2="34.5218"/><linearGradient id="f" gradientUnits="userSpaceOnUse" x1="-3.53526" x2="1.22391" xlink:href="#a" y1="55.4739" y2="75.3214"/><path d="m59.1771 27.0475h-56.35002c-1.12 0-2.110002-.71-2.480002-1.77-.3599999-1.06-.010001-2.23.870002-2.92l28.18002-21.81c.94-.73 2.26-.73 3.2 0l28.18 21.81c.89.68 1.24 1.86.87 2.92-.35 1.05-1.35 1.77-2.47 1.77zm-48.7-5.24h41.04l-20.52-15.88z" fill="url(#b)"/><path d="m12.3671 28.9375h-5.23002v22.6h5.23002z" fill="url(#c)"/><path d="m54.2371 28.9375h-5.23v22.6h5.23z" fill="url(#d)"/><path d="m33.2971 28.9375h-5.23v22.6h5.23z" fill="url(#e)"/><path d="m60.8371 54.3276h-60.310031v5.23h60.310031z" fill="url(#f)"/></svg>

<svg width="62" height="60" viewBox="0 0 62 60" fill="none" xmlns="http://www.w3.org/2000/svg">
<path d="M59.1771 27.0475H2.82708C1.70708 27.0475 0.717078 26.3375 0.347078 25.2775C-0.0129219 24.2175 0.337077 23.0475 1.21708 22.3575L29.3971 0.5475C30.3371 -0.1825 31.6571 -0.1825 32.5971 0.5475L60.7771 22.3575C61.6671 23.0375 62.0171 24.2175 61.6471 25.2775C61.2971 26.3275 60.2971 27.0475 59.1771 27.0475ZM10.4771 21.8075H51.5171L30.9971 5.9275L10.4771 21.8075Z" fill="url(#paint0_linear_98_864)"/>
<path d="M12.3671 28.9375H7.13708V51.5375H12.3671V28.9375Z" fill="url(#paint1_linear_98_864)"/>
<path d="M54.2371 28.9375H49.0071V51.5375H54.2371V28.9375Z" fill="url(#paint2_linear_98_864)"/>
<path d="M33.2971 28.9375H28.0671V51.5375H33.2971V28.9375Z" fill="url(#paint3_linear_98_864)"/>
<path d="M60.8371 54.3276H0.527069V59.5576H60.8371V54.3276Z" fill="url(#paint4_linear_98_864)"/>
<defs>
<linearGradient id="paint0_linear_98_864" x1="-3.94117" y1="5.92822" x2="49.3234" y2="49.7893" gradientUnits="userSpaceOnUse">
<stop offset="0.00800497" stop-color="#38DBFF"/>
<stop offset="1" stop-color="#243AFF"/>
</linearGradient>
<linearGradient id="paint1_linear_98_864" x1="6.78481" y1="33.8909" x2="14.3225" y2="34.5218" gradientUnits="userSpaceOnUse">
<stop offset="0.00800497" stop-color="#38DBFF"/>
<stop offset="1" stop-color="#243AFF"/>
</linearGradient>
<linearGradient id="paint2_linear_98_864" x1="48.6548" y1="33.8909" x2="56.1925" y2="34.5218" gradientUnits="userSpaceOnUse">
<stop offset="0.00800497" stop-color="#38DBFF"/>
<stop offset="1" stop-color="#243AFF"/>
</linearGradient>
<linearGradient id="paint3_linear_98_864" x1="27.7148" y1="33.8909" x2="35.2525" y2="34.5218" gradientUnits="userSpaceOnUse">
<stop offset="0.00800497" stop-color="#38DBFF"/>
<stop offset="1" stop-color="#243AFF"/>
</linearGradient>
<linearGradient id="paint4_linear_98_864" x1="-3.53526" y1="55.4739" x2="1.22391" y2="75.3214" gradientUnits="userSpaceOnUse">
<stop offset="0.00800497" stop-color="#38DBFF"/>
<stop offset="1" stop-color="#243AFF"/>
</linearGradient>
</defs>
</svg>
